app/dist/common/images/wuxi-apptec.svg

<svg height="18" viewBox="0 0 18 18" width="18" xmlns="http://www.w3.org/2000/svg"><path d="m0 0h18v18h-18z" fill="#f0f3fa"/><path d="m5 4h6.19s2.66.24 2.65 2.94c-.02 2.7-1.52 3.12-3.4 3.4-2.07.1-2.63-.13-3.95.25-1.29.47-2.49 1.21-2.49 1.21v-2.04s2.64-1.16 4.95-1.07c2.37.36 3.29-.89 2.79-2.15-.8-1.52-3.54-.6-3.7.55-.07.46.02 1.07.02 1.07s-.54.03-.9.07a5.2 5.2 0 0 0 -1.16.25v-2.48h-1z" fill="#008cd6"/><path d="m5 11.75s1.49-1.08 4.77-.96c3.14.15 4.3-1.28 4.47-3 0 0-.04-.12 0-1.07 0-.09.5 1.85.76 2.06-.12 1.01-1.07 2.29-2.6 2.7-1.32.27-4.4.27-4.4.27v2.25h-2v-1.65s-.91.28-1 .46z" fill="#0068b7"/></svg>

<!-- by TradingView --><svg width="18" height="18" viewBox="0 0 18 18" xmlns="http://www.w3.org/2000/svg"><path fill="#F0F3FA" d="M0 0h18v18H0z"/><path d="M5 4h6.19s2.66.24 2.65 2.94c-.02 2.7-1.52 3.12-3.4 3.4-2.07.1-2.63-.13-3.95.25C5.2 11.06 4 11.8 4 11.8V9.76S6.64 8.6 8.95 8.69c2.37.36 3.29-.89 2.79-2.15-.8-1.52-3.54-.6-3.7.55-.07.46.02 1.07.02 1.07s-.54.03-.9.07A5.2 5.2 0 0 0 6 8.48V6H5V4Z" fill="#008CD6"/><path d="M5 11.75s1.49-1.08 4.77-.96c3.14.15 4.3-1.28 4.47-3 0 0-.04-.12 0-1.07 0-.09.5 1.85.76 2.06-.12 1.01-1.07 2.29-2.6 2.7-1.32.27-4.4.27-4.4.27V14H6v-1.65s-.91.28-1 .46v-1.06Z" fill="#0068B7"/></svg>
